!!!!SEGMENT: Wil2005-Veni_sancte_spiritus.krn
!!!id: Wil2005
!!!AGN: Motet
!!!SCT: Zenck (1950)
!!!voices: 4
!!!COM: Adrian Willaert
!!!OTL: Veni sancte spiritus
**kern	**kern	**kern	**kern
*part4	*part3	*part2	*part1
*staff4	*staff3	*staff2	*staff1
*I"Bassus	*I"Tenor	*I"Altus	*I"Superius
*I'B	*I'T	*I'A	*I'S
*clefF4	*clefGv2	*clefGv2	*clefG2
*k[]	*k[]	*k[]	*k[]
*C:	*C:	*C:	*C:
*M2/1	*M2/1	*M2/1	*M2/1
*met(C|)	*met(C|)	*met(C|)	*met(C|)
!!section: Prima pars: Veni sancte spiritus
!!!OMD: Prima pars: Veni sancte spiritus
=1	=1	=1	=1
0r	0G	0r	0r
=2	=2	=2	=2
1r	1A	0r	0r
[1C	[1c	.	.
=3	=3	=3	=3
1C]	1c]	0r	0g
1E	1B	.	.
=4	=4	=4	=4
1.F	1.A	1r	1a
.	.	[1c	[1cc
2E	2G	.	.
=5	=5	=5	=5
2F	1A	1c]	1cc]
2A	.	.	.
1G	1r	1d	1b
=6	=6	=6	=6
2.D	1d	0f	0a
4E	.	.	.
2F	2c	.	.
2D	2d	.	.
=7	=7	=7	=7
1E	1B	1e	1g
2.AA	[1c	[1e	2.a
4BB	.	.	4g
=8	=8	=8	=8
2C	2c]	2e]	2a
2D	2.A	1d	2f
1AA	.	.	1e
.	4B	.	.
.	2c	2c	.
=9	=9	=9	=9
0D	2B	1d	2d
.	2.A	.	2.f
.	.	1A	.
.	4G	.	4e
.	2F	.	[2d
=10	=10	=10	=10
1AA	1E	2r	2d]
.	.	2e	2c#i
2.A	[1D	2.f	[1d
4G	.	4e	.
=11	=11	=11	=11
2A	1D]	2f	1d]
2F	.	2.d	.
1E	2r	.	1r
.	.	4c#i	.
.	2G	2c#i	.
=12	=12	=12	=12
0D	2A	2.d	1r
.	2B	.	.
.	.	4c	.
.	2A	2d	[1f
.	[2d	2B	.
=13	=13	=13	=13
1r	2d]	1A	1f]
.	2c	.	.
2r	2d	1G	1g
[2G	2B	.	.
=14	=14	=14	=14
2G]	1A	1r	1a
2F	.	.	.
1G	2r	2r	1b-i
.	2G	[2d	.
=15	=15	=15	=15
2D	2.F	2d]	1a
1F	.	2c	.
.	4E	.	.
.	2D	1d	1f
2D	2A	.	.
=16	=16	=16	=16
1E	2.G	2B	1g
.	.	1c	.
.	4E	.	.
2r	4F	.	1a
.	4G	.	.
2F	[2A	2A	.
=17	=17	=17	=17
2D	2A]	1B	1r
2E	2G	.	.
1F	2A	2r	1c
.	2c	2A	.
=18	=18	=18	=18
1r	4B	2F	1d
.	4A	.	.
.	2B	2G	.
2r	2A	1A	1f
2D	2F	.	.
=19	=19	=19	=19
2BB	2D	2r	1g
2C	2E	2c	.
1D	1F	2A	[1f
.	.	2B	.
=20	=20	=20	=20
1AA	2r	1c	2f]
.	2A	.	2e
1BB-X	2F	1r	2.d
.	2G	.	.
.	.	.	4e
=21	=21	=21	=21
2AA	1A	2r	2f
2C	.	2c	2.e
1BB-i	1D	2F	.
.	.	.	4d
.	.	2G	[2d
=22	=22	=22	=22
1AA	1E	1A	2d]
.	.	.	2c#i
[1D	2D	1A	[1d
.	[2F	.	.
=23	=23	=23	=23
0D_	2F]	1B-i	0d_
.	4E	.	.
.	4D	.	.
.	2.F	1A	.
.	4G	.	.
=24	=24	=24	=24
1D]	1A	2r	1d]
.	.	2F	.
1GG	1B-i	1G	1r
=25	=25	=25	=25
2r	1G	1B-i	1.d
2G	.	.	.
2F	2r	2A	.
2E	2G	[2G	2e
=26	=26	=26	=26
1D	1A	2G]	1f
.	.	2F	.
[1C	2.c	1G	[1e
.	4B	.	.
=27	=27	=27	=27
1C]	4A	2r	1e]
.	4G	.	.
.	2.c	2G	.
2r	.	2A	1e
.	4B	.	.
2C	4A	2c	.
.	4G	.	.
=28	=28	=28	=28
1D	2.F	2B	1d
.	.	1A	.
.	4G	.	.
[1F	[1A	.	1c
.	.	4G	.
.	.	8FL	.
.	.	8EJ	.
=29	=29	=29	=29
1F]	1A]	2D	2d
.	.	1d	2d
1E	2r	.	2e
.	2G	2c#i	[2g
=30	=30	=30	=30
1D	2B	1d	2g]
.	1A	.	2f
1C	.	2r	4e
.	.	.	4d
.	2G	2e	4c
.	.	.	4B
=31	=31	=31	=31
1D	2F	4d	2A
.	.	4c	.
.	2F	4A	1a
.	.	4B	.
1r	1E	4c	.
.	.	4A	.
.	.	2B	2g#i
=32	=32	=32	=32
0F	2r	0A	0a
.	1c	.	.
.	4B	.	.
.	4A	.	.
=33	=33	=33	=33
1G	2.B	1r	1d
.	4c	.	.
[1A	2A	2r	1r
.	[2c	[2e	.
=34	=34	=34	=34
1A]	4c]	2e]	0r
.	4B	.	.
.	1A	4d	.
.	.	4c	.
1B-i	.	2.d	.
.	2G	.	.
.	.	4e	.
=35	=35	=35	=35
1A	2A	2c	0r
.	2.D	2.f	.
1F	.	.	.
.	4E	4e	.
.	2F	[2d	.
=36	=36	=36	=36
1G	1E	2d]	0r
.	.	2c#i	.
[1A	2D	2d	.
.	[2F	[2A	.
=37	=37	=37	=37
1A]	4F]	4A]	1r
.	4G	4B	.
.	4A	4c	.
.	4F	4A	.
1r	[1G	2B	2r
.	.	2G	2e
=38	=38	=38	=38
0C	0G]	0E	2e
.	.	.	1g
.	.	.	2e
=39	=39	=39	=39
1D	0r	2r	2.f
.	.	2A	.
.	.	.	4g
[1F	.	2A	4a
.	.	.	4f
.	.	[2c	[2a
=40	=40	=40	=40
1F]	1r	2c]	4a]
.	.	.	4g
.	.	2A	4f
.	.	.	4e
1G	2r	2.B	2.d
.	2G	.	.
.	.	4c	4e
=41	=41	=41	=41
0F	2A	2d	4f
.	.	.	4g
.	1c	2c	1a
.	.	1A	.
.	2A	.	4g
.	.	.	4f
=42	=42	=42	=42
1E	2.B	2r	1g
.	.	2G	.
.	4c	.	.
[1D	2d	2A	2r
.	2B	[2F	2d
=43	=43	=43	=43
0D]	[0A	2F]	2d
.	.	4E	1f
.	.	4D	.
.	.	4F	.
.	.	4G	.
.	.	4A	2d
.	.	4B	.
=44	=44	=44	=44
1AA	1A]	4c	2.e
.	.	4d	.
.	.	1c	.
.	.	.	4f
2.E	[1G	.	2.g
.	.	2B	.
4D	.	.	4f
=45	=45	=45	=45
2C	2G]	4c	2e
.	.	4B	.
2D	2F	4A	1d
.	.	4G	.
1AA	1E	[1A	.
.	.	.	2c#i
=46	=46	=46	=46
2r	0D	2A]	[0d
2D	.	2B	.
1F	.	1A	.
=47	=47	=47	=47
1G	0r	1.B	0d]
1G	.	.	.
.	.	4A	.
.	.	4G	.
=48	=48	=48	=48
2.F	2r	1A	0r
.	2A	.	.
4D	.	.	.
2E	2c	1r	.
2F	[2d	.	.
=49	=49	=49	=49
2.G	2d]	0r	0r
.	2d	.	.
4F	.	.	.
4E	2.c	.	.
4D	.	.	.
[2F	.	.	.
.	4B	.	.
=50	=50	=50	=50
2F]	2c	0r	0r
4E	1d	.	.
4D	.	.	.
1E	.	.	.
.	2c#i	.	.
=51	=51	=51	=51
2D	1d	0r	0r
1F	.	.	.
.	1c	.	.
[2E	.	.	.
=52	=52	=52	=52
2E]	1B	0r	0r
1D	.	.	.
.	1A	.	.
4C	.	.	.
4BB	.	.	.
=53	=53	=53	=53
2AA	1c	1r	0r
2AA	.	.	.
2.GG	2B	[1d	.
.	[2G	.	.
4AA	.	.	.
=54	=54	=54	=54
4BB	4G]	2d]	0r
4GG	4F	.	.
2.C	2E	2c	.
.	1D	1d	.
4BB	.	.	.
2BB	.	.	.
=55	=55	=55	=55
1C	2.C	1.e	1.g
.	4D	.	.
1r	4E	.	.
.	4C	.	.
.	[2F	2d	2f
=56	=56	=56	=56
0r	4F]	2c	1g
.	4E	.	.
.	2E	2B	.
.	1F	4A	[1a
.	.	4B	.
.	.	4c	.
.	.	4d	.
=57	=57	=57	=57
0r	0r	4c	2a]
.	.	4d	.
.	.	2.e	2g
.	.	.	2f
.	.	4d	.
.	.	[2d	4e
.	.	.	4d
=58	=58	=58	=58
0r	0r	2d]	2e
.	.	2c	2e
.	.	2B	4d
.	.	.	4e
.	.	4A	4f
.	.	4G	4g
=59	=59	=59	=59
1D	0r	2.A	4f
.	.	.	4g
.	.	.	2.a
.	.	4B	.
1C	.	4c	.
.	.	4d	4g
.	.	[2e	[2g
=60	=60	=60	=60
1D	1r	4e]	2g]
.	.	4d	.
.	.	1d	2f#i
[1E	[1G	.	1g
.	.	4c	.
.	.	4B	.
=61	=61	=61	=61
2E]	2G]	2c	2r
2D	2F	2d	1a
2C	1G	2.e	.
2BB	.	.	2g
.	.	4d	.
=62	=62	=62	=62
1AA	1.A	4c	2f
.	.	4B	.
.	.	2c	2e
2r	.	2F	2d
2C	2G	2E	[2e
=63	=63	=63	=63
2D	2F	2A	4e]
.	.	.	4d
2BB	4E	2G	1d
.	4D	.	.
1AA	2E	2.A	.
.	2E	.	2c#i
.	.	4G	.
=64	=64	=64	=64
2.A	1D	4F	[0d
.	.	4E	.
.	.	2F	.
4G	.	.	.
4F	[1A	1D	.
4E	.	.	.
[2F	.	.	.
=65	=65	=65	=65
4F]	2A]	1r	0d]
4E	.	.	.
1D	1F	.	.
.	.	1A	.
4C	4E	.	.
4BB	4D	.	.
=66	=66	=66	=66
1AA	2E	1c	1r
.	2E	.	.
1r	[1D	[1d	2r
.	.	.	2d
=67	=67	=67	=67
0r	1D]	2d]	1f
.	.	2d	.
.	1r	2.c	[1g
.	.	8BL	.
.	.	8AJ	.
=68	=68	=68	=68
0r	0r	2B	2g]
.	.	2c	2g
.	.	1d	2.f
.	.	.	4g
=69	=69	=69	=69
0r	0r	1A	4a
.	.	.	4b
.	.	.	1cc
.	.	1f	.
.	.	.	4b
.	.	.	4a
=70	=70	=70	=70
0r	0r	1e	2b
.	.	.	2cc
.	.	1d	[1dd
=71	=71	=71	=71
0r	0r	2.f	1dd]
.	.	4e	.
.	.	4f	1cc
.	.	4d	.
.	.	[2e	.
=72	=72	=72	=72
0r	0r	2e]	1b
.	.	1d	.
.	.	.	1a
.	.	4c	.
.	.	4B	.
=73	=73	=73	=73
0r	0r	4A	2.cc
.	.	4B	.
.	.	4c	.
.	.	4d	4b
.	.	4e	4cc
.	.	4f	4a
.	.	4g	[2b
.	.	4f	.
=74	=74	=74	=74
0r	0r	4e	2b]
.	.	4d	.
.	.	1e	1g
.	.	4d	4f
.	.	4c	4e
=75	=75	=75	=75
0r	0r	2B	2g
.	.	2.d	2.f
.	.	4c	4e
.	.	4B	4d
.	.	4A	4c
=76	=76	=76	=76
0r	0r	2B	2d
.	.	2.c	2e
.	.	.	2c
.	.	4B	.
.	.	4A	[2g
.	.	4G	.
=77	=77	=77	=77
0r	1r	2A	2g]
.	.	2A	2f#i
.	2r	1G	1g
.	2G	.	.
=78	=78	=78	=78
0r	2F	2r	1a
.	4E	1d	.
.	4D	.	.
.	2E	.	2r
.	2E	2c#i	2g
=79	=79	=79	=79
2r	2D	1d	2f
2D	2F	.	4e
.	.	.	4d
2C	2G	1r	2e
4BB	[2A	.	2e
4AA	.	.	.
=80	=80	=80	=80
2BB	4A]	2r	2.d
.	4F	.	.
2BB	2G	2d	.
.	.	.	4e
2AA	2A	2c	4f
.	.	.	4e
[2D	[2F	4B	[2f
.	.	4A	.
=81	=81	=81	=81
2D]	2F]	2B	4f]
.	.	.	4e
2GG	2G	2B	1d
1AA	2E	2A	.
.	[2A	2c	2c#i
=82	=82	=82	=82
0D	4A]	2B	[0d
.	4D	.	.
.	1G	4A	.
.	.	4G	.
.	.	2A	.
.	2F#i	2A	.
=83	=83	=83	=83
2r	1G	1G	0d]
1G	.	.	.
.	1r	1B	.
2G	.	.	.
=84	=84	=84	=84
2.F	1r	1A	0r
4E	.	.	.
2F	1d	1r	.
[2G	.	.	.
=85	=85	=85	=85
4G]	2d	0r	2r
4F	.	.	.
4E	2.c	.	1g
4D	.	.	.
1E	.	.	.
.	4B	.	.
.	2c	.	2g
=86	=86	=86	=86
1.D	2.d	1r	2.f
.	4c	.	4e
.	4B	2r	2f
.	4A	.	.
2GG	2B	[2d	2g
=87	=87	=87	=87
1D	1A	2d]	1.f
.	.	2d	.
1r	[1A	2.c	.
.	.	.	4e
.	.	4B	4d
=88	=88	=88	=88
1r	2A]	2c	2e
.	2D	2.d	2f
2r	1G	.	1d
.	.	4c	.
[2G	.	4B	.
.	.	4A	.
=89	=89	=89	=89
2G]	0r	2B	2e
2G	.	2B	1d
2.F	.	2.A	.
.	.	.	2c#i
4E	.	4G	.
=90	=90	=90	=90
2F	2r	2A	1d
2.G	2d	2B	.
.	2d	[1G	1r
4F	.	.	.
4E	[2c	.	.
4D	.	.	.
=91	=91	=91	=91
2E	4c]	1G]	1r
.	4B	.	.
2E	2c	.	.
[1D	2.d	1r	[1f
.	4c	.	.
=92	=92	=92	=92
2D]	4B	0r	2f]
.	4A	.	.
2C	1A	.	2e
1BB	.	.	1d
.	2G	.	.
=93	=93	=93	=93
1AA	1.A	2r	0c
.	.	1F	.
1r	.	.	.
.	2G	2E	.
=94	=94	=94	=94
0r	2F	2D	1d
.	2G	2.B	.
.	1D	.	[1f
.	.	4A	.
.	.	4B	.
.	.	4G	.
=95	=95	=95	=95
0r	1F	2A	1f]
.	.	2.d	.
.	1E	.	1g
.	.	4c	.
.	.	4B	.
.	.	4A	.
=96	=96	=96	=96
1r	2.D	2B	2f
.	.	1A	1a
.	4E	.	.
1F	4F	.	.
.	4G	.	.
.	[2A	[2d	4g
.	.	.	4f
=97	=97	=97	=97
1E	2A]	2d]	1g
.	2G	2c#i	.
[1D	2A	1d	[1f
.	2B-i	.	.
=98	=98	=98	=98
0D]	2A	2r	0f]
.	2.F	2d	.
.	.	1d	.
.	4G	.	.
.	4A	.	.
.	4B	.	.
=99	=99	=99	=99
1C	2c	1e	1r
.	2.A	.	.
1D	.	1d	2r
.	4G	.	.
.	4F	.	2a
.	4E	.	.
=100	=100	=100	=100
1F	2D	0r	1a
.	1d	.	.
1G	.	.	1b
.	4c	.	.
.	4B	.	.
=101	=101	=101	=101
2.F	4c	2r	0a
.	4B	.	.
.	4A	2c	.
4E	4G	.	.
2D	1F	1d	.
2F	.	.	.
=102	=102	=102	=102
1C	0r	1e	1g
1r	.	2d	2.f
.	.	[2D	.
.	.	.	4e
=103	=103	=103	=103
0r	0r	4D]	4f
.	.	4E	4g
.	.	4F	1a
.	.	4G	.
.	.	4A	.
.	.	4B	.
.	.	4c	4g
.	.	4A	4f
=104	=104	=104	=104
0r	2r	4B	2.g
.	.	4c	.
.	2G	1d	.
.	.	.	4f
.	1A	.	1e
.	.	2c#i	.
=105	=105	=105	=105
2r	1B	1d	1d
2G	.	.	.
2F	[1A	2r	1r
4E	.	2d	.
4D	.	.	.
=106	=106	=106	=106
1F	1A]	2c	0r
.	.	4B	.
.	.	4A	.
1E	1G	2c	.
.	.	2B	.
=107	=107	=107	=107
1D	0F	2r	0r
.	.	2d	.
2r	.	2c	.
2A	.	4B	.
.	.	4A	.
=108	=108	=108	=108
2G	1E	2.B	0r
4F	.	.	.
4E	.	4c	.
2.F	2D	2d	.
.	[2F	4D	.
4G	.	4E	.
=109	=109	=109	=109
2A	4F]	4F	1r
.	4E	4G	.
2D	4F	4A	.
.	4D	4B	.
2C	2E	4A	2r
.	.	4G	.
2BB	[2D	[2G	2g
=110	=110	=110	=110
1AA	2D]	2G]	1a
.	2C	2F#i	.
1GG	2.D	1G	1b
.	4E	.	.
=111	=111	=111	=111
2r	4F	1D	0a
.	4G	.	.
2D	2.F	.	.
1D	.	1r	.
.	4D	.	.
.	[2d	.	.
=112	=112	=112	=112
1E	2d]	2r	1g
.	2c#i	2G	.
[1D	1d	2A	[1f
.	.	2B	.
=113	=113	=113	=113
1D]	2r	2A	1f]
.	2A	1d	.
1AA	1A	.	1e
.	.	2c#i	.
=114	=114	=114	=114
1r	1B-i	2d	2d
.	.	4D	2.f
.	.	4E	.
1D	2A	4F	.
.	.	4G	4e
.	2F	4A	4f
.	.	4B	4d
=115	=115	=115	=115
2C	2G	2c	2e
2BB	2D	2G	1d
1AA	1E	1A	.
.	.	.	2c#i
=	=	=	=
00D	00D	00A	00d
=||	=||	=||	=||
*M3/1	*M3/1	*M3/1	*M3/1
*met(C|3)	*met(C|3)	*met(C|3)	*met(C|3)
!!section: Secunda pars: Sine tuo
!!!OMD: Secunda pars: Sine tuo
0.r	1.D	0.r	0.r
.	2E	.	.
.	2F	.	.
.	2G	.	.
=116	=116	=116	=116
0D	1A	0.r	0.r
.	1.F	.	.
1D	.	.	.
.	2D	.	.
=117	=117	=117	=117
1C	2E	0.r	0.r
.	2F	.	.
1BB	1.G	.	.
1C	.	.	.
.	2E	.	.
=118	=118	=118	=118
1.D	1F	0.r	0.r
.	2D	.	.
2C	2E	.	.
2D	2F	.	.
2BB	2G	.	.
=119	=119	=119	=119
1C	1.A	0.r	0.r
1D	.	.	.
.	2G	.	.
1BB-i	1G	.	.
=120	=120	=120	=120
0AA	0.A	0.r	0.r
1r	.	.	.
=121	=121	=121	=121
1.F	[0.A	0.r	0.r
2E	.	.	.
1D	.	.	.
=122	=122	=122	=122
1C	0A]	0.r	0.r
1D	.	.	.
[1F	1r	.	.
=123	=123	=123	=123
1F]	1F	0.r	0.r
1G	1E	.	.
2.F	1D	.	.
4G	.	.	.
=124	=124	=124	=124
2A	0C	0.r	0.r
2F	.	.	.
1G	.	.	.
1F	1D	.	.
=125	=125	=125	=125
2.D	0F	0.r	0.r
4E	.	.	.
2F	.	.	.
2D	.	.	.
1E	1G	.	.
=126	=126	=126	=126
1.D	1F	0.r	0.r
.	1.A	.	.
2C	.	.	.
2D	.	.	.
2E	2G	.	.
=127	=127	=127	=127
1.F	2A	0.r	0.r
.	2F	.	.
.	0G	.	.
4E	.	.	.
4D	.	.	.
1E	.	.	.
=128	=128	=128	=128
1F	0F	1c	0.r
0D	.	1d	.
.	1r	1f	.
=129	=129	=129	=129
1C	1G	0e	0.r
1r	1A	.	.
1GG	1B	1d	.
=130	=130	=130	=130
1AA	0A	1c	0.r
0C	.	1.e	.
.	1G	.	.
.	.	2d	.
=131	=131	=131	=131
1D	0F	1.d	0.r
1AA	.	.	.
.	.	4c#i	.
.	.	4B	.
1AA	1E	1c#i	.
=	=	=	=
*M2/1	*M2/1	*M2/1	*M2/1
*met(C|)	*met(C|)	*met(C|)	*met(C|)
[0D	1D	0d	1r
.	[1A	.	1f
=132	=132	=132	=132
1D]	2A]	1r	1f
.	4G	.	.
.	4F	.	.
2AA	1A	1c	2.e
[2C	.	.	.
.	.	.	4d
=133	=133	=133	=133
2C]	1G	1c	2e
4BB	.	.	1g
4AA	.	.	.
1GG	1r	[1B	.
.	.	.	4f
.	.	.	4e
=134	=134	=134	=134
0r	0r	2B]	2d
.	.	2A	2c
.	.	2B	2.g
.	.	[2c	.
.	.	.	4f
=135	=135	=135	=135
0r	0r	2c]	4e
.	.	.	4d
.	.	2B	1g
.	.	1A	.
.	.	.	2f#i
=136	=136	=136	=136
0r	0r	1G	[0g
.	.	2r	.
.	.	2e	.
=137	=137	=137	=137
0r	0r	2e	0g]
.	.	1c	.
.	.	4B	.
.	.	4A	.
=138	=138	=138	=138
0r	0r	2B	2r
.	.	2c	2a
.	.	2.d	2a
.	.	.	[2f
.	.	4c	.
=139	=139	=139	=139
0r	0r	2d	2f]
.	.	2B	4e
.	.	.	4d
.	.	2.A	2e
.	.	.	2f
.	.	4G	.
=140	=140	=140	=140
0r	0r	4E	2.g
.	.	4F	.
.	.	4G	.
.	.	4A	4f
.	.	4B	2g
.	.	4c	.
.	.	[2d	2f
=141	=141	=141	=141
0r	0r	2d]	1e
.	.	2c#i	.
.	.	2.d	1d
.	.	4c	.
=142	=142	=142	=142
0r	0r	2A	2r
.	.	2c	2e
.	.	1B	1g
=143	=143	=143	=143
0r	0r	2r	0a
.	.	2A	.
.	.	2c	.
.	.	2d	.
=144	=144	=144	=144
0r	0r	2e	1g
.	.	2.c	.
.	.	.	[1cc
.	.	4B	.
.	.	4A	.
.	.	4G	.
=145	=145	=145	=145
1r	0r	4A	2cc]
.	.	4G	.
.	.	1d	2b
1F	.	.	[1a
.	.	4c	.
.	.	4B	.
=146	=146	=146	=146
2F	0r	2.c	2a]
1E	.	.	4g
.	.	4d	4f
.	.	2B	1g
2E	.	[2c	.
=147	=147	=147	=147
1F	1c	4c]	1a
.	.	4B	.
.	.	1A	.
1E	2c	.	1r
.	[2B	[2G	.
=148	=148	=148	=148
1D	2B]	2G]	2r
.	2B	2F	2f
1C	1c	2G	2e
.	.	2A	[2a
=149	=149	=149	=149
0r	1B	1E	2a]
.	.	.	2g
.	1A	2r	[1cc
.	.	2e	.
=150	=150	=150	=150
1E	0G	2.e	2cc]
.	.	.	2b
.	.	8dL	.
.	.	8cJ	.
2E	.	2B	2.g
[2C	.	[2e	.
.	.	.	4f
=151	=151	=151	=151
4C]	0r	4e]	2g
4BB	.	4d	.
2C	.	4c	1a
.	.	4B	.
1D	.	2A	.
.	.	[2B	4g
.	.	.	4f
=152	=152	=152	=152
1C	0r	4B]	2.e
.	.	4A	.
.	.	1A	.
.	.	.	4f
1BB	.	.	1d
.	.	2G#i	.
=153	=153	=153	=153
0AA	1r	2A	2r
.	.	1e	2a
.	1A	.	2.a
.	.	2e	.
.	.	.	8gL
.	.	.	8fJ
=154	=154	=154	=154
1r	2A	2.c	2e
.	2.F	.	2.a
.	.	4B	.
2r	.	2c	.
.	4E	.	4g
2D	2F	[2d	4f
.	.	.	4e
=155	=155	=155	=155
2BB	1G	2d]	2d
2C	.	2c	2.e
1D	1F	1A	.
.	.	.	4d
.	.	.	[2d
=156	=156	=156	=156
1AA	1E	2r	2d]
.	.	2A	2c#i
1r	[1D	2A	[1d
.	.	[2B	.
=157	=157	=157	=157
1r	0D]	2B]	1d]
.	.	2A	.
1BB	.	[1d	2r
.	.	.	2g
=158	=158	=158	=158
2D	0r	2d]	2f
1E	.	2c	2.g
.	.	2.B	.
.	.	.	4e
2D	.	.	2f
.	.	4A	.
=159	=159	=159	=159
1.G	1E	2B	2g
.	.	2c	2.e
.	2G	2B	.
.	.	.	4d
2F	[2A	2A	2d
=160	=160	=160	=160
2.E	2A]	1B	2e
.	2G	.	2e
4D	.	.	.
2C	[1c	[1e	2g
2AA	.	.	[2a
=161	=161	=161	=161
1E	2c]	0e]	2a]
.	2B	.	2g
2AA	2.A	.	[1cc
[2A	.	.	.
.	4G	.	.
=162	=162	=162	=162
2A]	2F	2r	2cc]
2G	2G	2E	2b
2.F	2.D	2F	2.a
.	.	[2A	.
4E	4E	.	4g
=163	=163	=163	=163
2D	2F	2A]	2f
2E	1E	2G	2g
2C	.	[1c	[1e
[2AA	[2A	.	.
=164	=164	=164	=164
4AA]	2A]	1c]	0e]
4BB	.	.	.
4C	4G	.	.
4D	4F	.	.
1E	4G	1B	.
.	4F	.	.
.	4E	.	.
.	4D	.	.
=165	=165	=165	=165
0AA	2C	1A	0r
.	2F	.	.
.	1E	1r	.
=	=	=	=
*M3/1	*M3/1	*M3/1	*M3/1
*met(3)	*met(3)	*met(3)	*met(3)
0.r	0.D	0d	0f
.	.	1d	1a
=166	=166	=166	=166
0.r	0.r	0G	0b-i
.	.	1A	1a
=167	=167	=167	=167
0.r	0.r	0c	0a
.	.	1B	1g
=168	=168	=168	=168
0D	0F	0.A	0.a
1D	1A	.	.
=169	=169	=169	=169
0GG	0B-i	0.r	0.r
1AA	1A	.	.
=170	=170	=170	=170
0C	0A	0.r	0.r
1BB	1G	.	.
=171	=171	=171	=171
0AA	0A	0c	0a
1r	1r	1d	1b
=172	=172	=172	=172
0.r	0.r	1f	1a
.	.	1e	1g
.	.	1c	1a
=173	=173	=173	=173
0.r	0.r	0d	0f
.	.	1e	1g
=174	=174	=174	=174
0D	0A	0.d	0.f
1D	1B	.	.
=175	=175	=175	=175
1F	1A	0.r	0.r
1E	1G	.	.
1C	1A	.	.
=176	=176	=176	=176
0D	0F	0A	0.r
1E	1G	1c	.
=177	=177	=177	=177
0.D	0.F	0d	0.r
.	.	1A	.
=178	=178	=178	=178
1%3r	1%3r	0c	0e
.	.	1B	1g
=179	=179	=179	=179
0AA	0.r	1A	0a
.	.	1.c	.
1C	.	.	1e
.	.	2B	.
=180	=180	=180	=180
0D	0.r	2A	0f
.	.	2G	.
.	.	2A	.
.	.	2B	.
1AA	.	[1c	1e
=181	=181	=181	=181
0C	0E	2c]	2c
.	.	2B	2d
.	.	2G	2e
.	.	2A	2c
1BB	1G	2B	2d
.	.	2G	2e
=182	=182	=182	=182
0AA	0A	0c	1f
.	.	.	1.e
1BB	1D	1B	.
.	.	.	2d
=183	=183	=183	=183
1D	0F	0.A	1.d
0AA	.	.	.
.	.	.	4c#i
.	.	.	4B
.	1E	.	1c#i
=	=	=	=
*M2/1	*M2/1	*M2/1	*M2/1
*met(C|)	*met(C|)	*met(C|)	*met(C|)
1r	[0D	2r	[0d
.	.	2A	.
1A	.	2A	.
.	.	2D	.
=184	=184	=184	=184
1A	0D]	2.F	1d]
.	.	4G	.
[1D	.	2A	1r
.	.	2B-i	.
=185	=185	=185	=185
1D]	0r	2A	1a
.	.	1d	.
1F	.	.	1a
.	.	2c	.
=186	=186	=186	=186
0G	1r	2.B	0d
.	.	4A	.
.	1d	1B	.
=187	=187	=187	=187
1F	1d	1A	1f
2E	[1G	2r	[1g
[2G	.	[2B	.
=188	=188	=188	=188
2G]	1G]	4B]	1g]
.	.	4A	.
4F	.	4B	.
4E	.	4c	.
1D	1A	1d	1f
=189	=189	=189	=189
0C	0c	[0G	2e
.	.	.	1g
.	.	.	4f
.	.	.	4e
=190	=190	=190	=190
2r	1B	1G]	1d
2GG	.	.	.
2.AA	[1A	2E	2c
.	.	[2c	[2e
4BB	.	.	.
=191	=191	=191	=191
2C	1A]	2c]	2e]
2D	.	4B	4d
.	.	4A	4c
1E	1r	1G	2B
.	.	.	2e
=192	=192	=192	=192
2.F	0A	2F	2.c
.	.	1c	.
8EL	.	.	4d
8DJ	.	.	.
2C	.	.	2e
2D	.	4B	2f
.	.	4A	.
=193	=193	=193	=193
1GG	1B	2.d	1g
.	.	4c	.
[1D	[1A	4d	2.f
.	.	4e	.
.	.	[2f	.
.	.	.	4g
=194	=194	=194	=194
2D]	2A]	2f]	4a
.	.	.	4b
2E	2G	2e	2.cc
2.F	1A	2d	.
.	.	.	4b
.	.	[2c	[2a
4E	.	.	.
=195	=195	=195	=195
1D	1F	2c]	4a]
.	.	.	4g
.	.	2B	1f
1C	1G	[1c	.
.	.	.	2e
=196	=196	=196	=196
2r	0F	1c]	1f
1A	.	.	.
.	.	1r	1r
2F	.	.	.
=197	=197	=197	=197
2G	0r	2r	0e
1A	.	1c	.
4G	.	2A	.
4F	.	.	.
=198	=198	=198	=198
4E	0r	2B	1g
4D	.	.	.
4C	.	2.c	.
4BB	.	.	.
1AA	.	.	[1a
.	.	4B	.
.	.	4A	.
.	.	4G	.
=199	=199	=199	=199
[0D	0r	4F	1a]
.	.	4D	.
.	.	1d	.
.	.	.	1d
.	.	4c	.
.	.	4B	.
=200	=200	=200	=200
1D]	0r	4A	0f
.	.	4G	.
.	.	4F	.
.	.	4E	.
1r	.	2D	.
.	.	[2d	.
=201	=201	=201	=201
1r	0r	2d]	1e
.	.	2c	.
[1BB	.	2d	[1d
.	.	[2B	.
=202	=202	=202	=202
1BB]	0r	2B]	2d]
.	.	4A	1g
.	.	4G	.
1D	.	1A	.
.	.	.	2f
=203	=203	=203	=203
2E	0E	0r	2g
2AA	.	.	1e
1C	.	.	.
.	.	.	4d
.	.	.	4c
=204	=204	=204	=204
1BB	1G	0r	1d
2.AA	[1A	.	1r
4BB	.	.	.
=205	=205	=205	=205
2C	1A]	0r	0r
2.D	.	.	.
.	1D	.	.
4E	.	.	.
4F	.	.	.
4G	.	.	.
=206	=206	=206	=206
2A	1F	0r	2r
1D	.	.	2d
.	1E	.	2e
2C	.	.	[2g
=207	=207	=207	=207
1D	1.D	1r	2g]
.	.	.	2f
[1GG	.	[1B	2g
.	[2G	.	2d
=208	=208	=208	=208
1GG]	4G]	1B]	4e
.	4F	.	4d
.	2E	.	1g
1r	1D	1d	.
.	.	.	2f
=209	=209	=209	=209
2r	2.C	0e	0g
2.G	.	.	.
.	4D	.	.
.	4E	.	.
4F	4F	.	.
2E	[2G	.	.
=210	=210	=210	=210
1D	2G]	1A	1r
.	2F	.	.
[1C	1G	[1c	2r
.	.	.	[2e
=211	=211	=211	=211
2C]	1E	1c]	2e]
4BB	.	.	1a
4AA	.	.	.
1E	2r	1B	.
.	[2E	.	2g
=212	=212	=212	=212
1AA	2E]	1A	4a
.	.	.	4g
.	1A	.	4f
.	.	.	4e
1r	.	1r	2f
.	2G	.	[2e
=213	=213	=213	=213
2r	2A	1r	2e]
2D	2F	.	1d
2E	1E	1G	.
[2G	.	.	2c#i
=214	=214	=214	=214
2G]	1D	1A	1d
2F	.	.	.
2G	1r	[1B	[1g
2E	.	.	.
=215	=215	=215	=215
1D	2r	2B]	2g]
.	2D	2A	2f
2.C	2E	[1c	1g
.	[2G	.	.
4BB	.	.	.
=216	=216	=216	=216
1AA	2G]	1c]	1a
.	2F	.	.
[1GG	2G	[1B	2d
.	2E	.	[2g
=217	=217	=217	=217
2GG]	1D	2B]	2g]
2D	.	2.A	2f
2C	1r	.	2e
.	.	4G	.
2BB	.	2G	2d
=218	=218	=218	=218
1AA	1C	2G	2c
.	.	2F	4B
.	.	.	4A
1GG	1D	2G	2.B
.	.	2d	.
.	.	.	4c
=219	=219	=219	=219
1C	1.E	1c	2A
.	.	.	2G
1GG	.	1B	2r
.	2D	.	2g
=220	=220	=220	=220
0D	0F	0A	2.f
.	.	.	4e
.	.	.	1d
=221	=221	=221	=221
0AA	0E	[0Al	0c#i
=222	=222	=222	=222
00Dl	00Dl	00A]	00dl
==	==	==	==
*-	*-	*-	*-
!!!system-decoration: [*]
!!!RDF**kern: i = editorial accidental
!!!RDF**kern: l = terminal long
!!!ENC: Benjamin Ory
!!!END: 2022/2/16
!!!EED: Benjamin Ory
!!!EEV: 2022/02/06
!!!YEC: Copyright 2022 Benjamin Ory, All Rights Reserved
!!!ONB: Translated from MusicXML on 2022/02/06
